X: 17
M:C|
L:1/8
K:A
(ucd)|e>ae>c d>fd>B|A>cE>C A,>CE>A|d>fd>B c>ec>A|F>AG>A B2 uc>d|
e>ae>c d>fd>B|e>ae>c d>fd>B|A>cE>C A,>CE>A|d>fe>d c>BA>G|A2c2A2:|
|:(uG"4"A)|B>EG>B d>BG>E|"4"A>A,C>E A>c"4"e>c|\
d>fB>d c>"4"eA>c|((3BcB) ((3AGF) E2 (G"4"A)|


